X: 1
T: COUNTRY GARDENS
S: Carey(MSS)
O: Headington
P: A.(A2B2)4
Q: 1/2=92
B: Morris Ring
Z: 2005 John Chambers <jc@trillian.mit.edu>
M: 4/4
L: 1/8
K: G
P: A
|: efgf e2ee | dedc B2Bc | d2G2 A2d2 | B3A G4 :|
P: B
|: gfge f2d2 | gfge f2d2 | g2gf e2a2 | f3e d4  |
   d2gf e2e2 | dedc B2Bc | d2G2 A2d2 | B3A G4 :|
